static/images/doc.svg

<svg xmlns="http://www.w3.org/2000/svg" xml:space="preserve" viewBox="0 0 100 100"><path d="M31.436 25.673H69.2v2.178H31.436zm0 7.988H69.2v2.179H31.436zm0 8.714H69.2v2.179H31.436zm0 7.988H69.2v2.179H31.436zm0 8.714H69.2v2.179H31.436z"/><path d="M76.823 8.79H24.538c-3.604 0-6.536 2.932-6.536 6.536v69.349c0 3.604 2.932 6.536 6.536 6.536h42.119c9.21 0 16.702-7.492 16.702-16.702V15.326c0-3.605-2.932-6.536-6.536-6.536zM22.358 84.675V15.326c0-1.202.979-2.179 2.18-2.179h52.285c1.2 0 2.178.977 2.178 2.179v56.096H62.663v15.432H24.538c-1.201 0-2.18-.978-2.18-2.179zm44.662 2.16V75.779h11.916c-.625 6.094-5.706 10.873-11.916 11.056z"/></svg>

<svg width="100" height="100" viewBox="0 0 100 100" fill="none" xmlns="http://www.w3.org/2000/svg">
<path d="M31.436 25.673H69.2V27.851H31.436V25.673ZM31.436 33.661H69.2V35.84H31.436V33.661ZM31.436 42.375H69.2V44.554H31.436V42.375ZM31.436 50.363H69.2V52.542H31.436V50.363ZM31.436 59.077H69.2V61.256H31.436V59.077Z" fill="white"/>
<path d="M76.823 8.78999H24.538C20.934 8.78999 18.002 11.722 18.002 15.326V84.675C18.002 88.279 20.934 91.211 24.538 91.211H66.657C75.867 91.211 83.359 83.719 83.359 74.509V15.326C83.359 11.721 80.427 8.78999 76.823 8.78999ZM22.358 84.675V15.326C22.358 14.124 23.337 13.147 24.538 13.147H76.823C78.023 13.147 79.001 14.124 79.001 15.326V71.422H62.6628V86.854H24.538C23.337 86.854 22.358 85.876 22.358 84.675ZM67.02 86.835V75.779H78.936C78.311 81.873 73.23 86.652 67.02 86.835Z" fill="white"/>
</svg>
